X: 1
T: Paddy Fahey's
R: reel
M: 4/4
L: 1/8
K: Dmaj
|:ADFA dcde|fged cAAg|fAdf g2 e/f/g|f/g/aed cAGE|
ADFA d2Ad|fged cAag|fAdf g/a/ged|cAGE FDD2:|
fgaf g/a/geg|fdAF D3=c|B~G3 BGAg|fged cdeg|
fgaf gaeg|fdAF G2FG|A2GB Adfd|cAGE FDD2|
fgaf g/a/geg|fdAF D3=c|B~G3 BGAg|fged cdeg|
fgaf gaeg|fdAF G2FG|A~d3 aded|cAGE FDD2||

composer: Paddy Fahey
